image/instagram.svg

<svg width="16" height="16" viewBox="0 0 16 16" fill="none" xmlns="http://www.w3.org/2000/svg">
<g clip-path="url(#clip0_1_387)">
<path d="M7.99999 1.74954C10.0381 1.74954 10.2804 1.75715 11.0857 1.79449C13.1543 1.8882 14.1204 2.8703 14.2149 4.92363C14.2522 5.7282 14.259 5.97049 14.259 8.00935C14.259 10.0474 14.2514 10.289 14.2149 11.0935C14.1204 13.1453 13.1558 14.129 11.0857 14.2227C10.2804 14.26 10.0396 14.2676 7.99999 14.2676C5.9619 14.2676 5.71961 14.26 4.91504 14.2227C2.84114 14.1282 1.87961 13.1423 1.7859 11.0928C1.74856 10.2882 1.74095 10.0467 1.74095 8.00782C1.74095 5.96973 1.74933 5.7282 1.7859 4.92287C1.88037 2.8703 2.84495 1.8882 4.91504 1.79373C5.72037 1.75715 5.9619 1.74954 7.99999 1.74954ZM7.99999 0.373535C5.92685 0.373535 5.66704 0.382678 4.85333 0.419249C2.07999 0.546488 0.53866 2.08477 0.411422 4.86115C0.375612 5.67563 0.365707 5.93468 0.365707 8.00782C0.365707 10.0817 0.37485 10.3415 0.411422 11.156C0.53866 13.9286 2.07695 15.4692 4.8518 15.5964C5.66704 15.6337 5.92609 15.6421 7.99999 15.6421C10.0731 15.6421 10.3337 15.633 11.1482 15.5964C13.9177 15.4692 15.4621 13.9309 15.5878 11.156C15.6259 10.3415 15.6343 10.0817 15.6343 8.00782C15.6343 5.93468 15.6251 5.67487 15.5886 4.86115C15.4636 2.09011 13.9238 0.546488 11.1482 0.419249C10.3329 0.381154 10.0739 0.373535 7.99999 0.373535ZM7.99999 4.08782C6.96034 4.08782 5.96328 4.50082 5.22813 5.23596C4.49299 5.97111 4.07999 6.96817 4.07999 8.00782C4.07999 9.04747 4.49299 10.0445 5.22813 10.7797C5.96328 11.5148 6.96034 11.9278 7.99999 11.9278C9.03964 11.9278 10.0367 11.5148 10.7719 10.7797C11.507 10.0445 11.92 9.04747 11.92 8.00782C11.92 6.96817 11.507 5.97111 10.7719 5.23596C10.0367 4.50082 9.03964 4.08782 7.99999 4.08782ZM7.99999 10.5526C7.66216 10.5584 7.32654 10.4969 7.01272 10.3717C6.6989 10.2465 6.41316 10.06 6.17218 9.82312C5.9312 9.58627 5.7398 9.30381 5.60914 8.9922C5.47849 8.6806 5.4112 8.34609 5.4112 8.0082C5.4112 7.67031 5.47849 7.33581 5.60914 7.0242C5.7398 6.7126 5.9312 6.43013 6.17218 6.19328C6.41316 5.95644 6.6989 5.76995 7.01272 5.64471C7.32654 5.51947 7.66216 5.45797 7.99999 5.46382C8.67491 5.46382 9.32218 5.73193 9.79941 6.20916C10.2766 6.6864 10.5448 7.33367 10.5448 8.00858C10.5448 8.6835 10.2766 9.33077 9.79941 9.808C9.32218 10.2852 8.67491 10.5526 7.99999 10.5526ZM12.0754 3.01734C11.9529 3.01381 11.8309 3.03489 11.7166 3.07935C11.6024 3.1238 11.4982 3.19072 11.4103 3.27615C11.3224 3.36157 11.2525 3.46377 11.2047 3.57668C11.157 3.6896 11.1324 3.81095 11.1324 3.93353C11.1324 4.05612 11.157 4.17747 11.2047 4.29039C11.2525 4.4033 11.3224 4.5055 11.4103 4.59093C11.4982 4.67635 11.6024 4.74327 11.7166 4.78772C11.8309 4.83218 11.9529 4.85326 12.0754 4.84973C12.3138 4.84285 12.5402 4.74331 12.7064 4.57224C12.8726 4.40117 12.9656 4.17205 12.9656 3.93353C12.9656 3.69502 12.8726 3.4659 12.7064 3.29483C12.5402 3.12376 12.3138 3.02422 12.0754 3.01734Z" fill="black"/>
</g>
<defs>
<clipPath id="clip0_1_387">
<rect width="16" height="16" fill="white"/>
</clipPath>
</defs>
</svg>

<svg xmlns="http://www.w3.org/2000/svg" width="16" height="16" fill="none"><g clip-path="url(#a)"><path fill="#000" d="M8 1.75c2.038 0 2.28.007 3.086.044 2.068.094 3.034 1.076 3.129 3.13.037.804.044 1.046.044 3.085 0 2.038-.008 2.28-.044 3.085-.095 2.051-1.06 3.035-3.13 3.129-.805.037-1.045.045-3.085.045-2.038 0-2.28-.008-3.085-.045-2.074-.095-3.035-1.08-3.13-3.13-.036-.805-.044-1.046-.044-3.085 0-2.038.008-2.28.045-3.085.094-2.053 1.059-3.035 3.129-3.13C5.72 1.758 5.962 1.75 8 1.75ZM8 .374c-2.073 0-2.333.009-3.147.045C2.08.546.54 2.085.411 4.861.376 5.676.366 5.935.366 8.008c0 2.074.009 2.334.045 3.148.128 2.773 1.666 4.313 4.44 4.44.816.038 1.075.046 3.149.046 2.073 0 2.334-.009 3.148-.046 2.77-.127 4.314-1.665 4.44-4.44.038-.815.046-1.074.046-3.148 0-2.073-.009-2.333-.045-3.147-.125-2.77-1.665-4.315-4.44-4.442C10.332.381 10.073.374 8 .374Zm0 3.714a3.92 3.92 0 1 0 0 7.84 3.92 3.92 0 0 0 0-7.84Zm0 6.465a2.546 2.546 0 0 1-2.39-3.529A2.545 2.545 0 0 1 8 5.464a2.545 2.545 0 1 1 0 5.089Zm4.075-7.536a.917.917 0 1 0-.052 1.833.917.917 0 0 0 .052-1.833Z"/></g><defs><clipPath id="a"><path fill="#fff" d="M0 0h16v16H0z"/></clipPath></defs></svg>
